assets/sonr-icons/osmo-fill.svg

<svg xmlns="http://www.w3.org/2000/svg" width="24" height="24" fill="none"><path fill="currentColor" d="M12 22c5.523 0 10-4.477 10-10S17.523 2 12 2 2 6.477 2 12s4.477 10 10 10m4.283-11.832c1.547 1.851 1.917 4.258.931 6.243-1.417 2.853-5.185 3.879-8.393 2.286s-4.667-5.215-3.25-8.068c.986-1.985 3.127-3.146 5.536-3.031l1.412-2.843-1.293-.642.572-1.15 7.762 3.855-.571 1.15-1.293-.642-1.412 2.843-.002-.001zm-4.47 1.547c.609-.077 1.375-.173 2.449.361 1.069.531 1.455 1.199 1.763 1.733l.004.007c.101.171.189.316.292.452.097-1.264-.376-2.588-1.378-3.639l-.33-.344 1.789-3.601-2.588-1.286-1.789 3.601-.474-.054c-1.106-.128-2.152.093-3.008.585.236.264.394.529.538.772l.053.088.001.001c.263.46.457.8 1.104 1.12.641.319 1.028.271 1.556.205l.02-.002z"/></svg>

<svg xmlns="http://www.w3.org/2000/svg" width="24" height="24" fill="none" viewBox="0 0 24 24"><path fill="#000" d="M12 22C17.523 22 22 17.523 22 12C22 6.477 17.523 2 12 2C6.477 2 2 6.477 2 12C2 17.523 6.477 22 12 22ZM16.283 10.168C17.83 12.019 18.2 14.426 17.214 16.411C15.797 19.264 12.029 20.29 8.821 18.697C5.613 17.104 4.154 13.482 5.571 10.629C6.557 8.644 8.698 7.483 11.107 7.598L12.519 4.755L11.226 4.113L11.798 2.963L19.56 6.818L18.989 7.968L17.696 7.326L16.284 10.169L16.282 10.168H16.283ZM11.813 11.715C12.422 11.638 13.188 11.542 14.262 12.076C15.331 12.607 15.717 13.275 16.025 13.809L16.029 13.816C16.13 13.987 16.218 14.132 16.321 14.268C16.418 13.004 15.945 11.68 14.943 10.629L14.613 10.285L16.402 6.684L13.814 5.398L12.025 8.999L11.551 8.945C10.445 8.817 9.399 9.038 8.543 9.53C8.779 9.794 8.937 10.059 9.081 10.302C9.098 10.332 9.116 10.361 9.134 10.39L9.135 10.391C9.398 10.851 9.592 11.191 10.239 11.511C10.88 11.83 11.267 11.782 11.795 11.716L11.815 11.714L11.814 11.715H11.813Z"/></svg>
